X: 11
T: No_1_Introductory_Song_With_Treatment_of_the_Sick.krn
N: Derived from No_1_Introductory_Song_With_Treatment_of_the_Sick.krn
%%abc-version 2.0
%%abcx-abcm2ps-target-version 5.9.1 (29 Sep 2008)
%%abc-creator hum2abc beta
%%abcx-conversion-date 2019/03/15 08:26:49
%%humdrum-veritas 3308865453
%%humdrum-veritas-data 589877014
%%linebreak <none>
%%barnumbers 0
L: 1/16
M: 2/4
%%staves {1 2}
V: 1 clef=bass
V: 2 clef=bass
K: Bb
[V:1] [K:clef=bass][M:2/4]z4z3 A, | 
[V:2] [K:clef=bass][M:2/4]G,,G,,G,,G,, G,,G,,G,,G,, | 
[V:1] B,3A, B,2 z G, | 
[V:2] G,,G,,G,,G,,z4 | 
[V:1] F,3G, F,2 z G,/A,/ | 
[V:2] z8 | 
[V:1] B,2F,G, B,2G,3/G,/ | 
[V:2] z8 | 
[V:1] F,3G, F,2 z F, | 
[V:2] z8 | 
[V:1] F,4G,3/G,/G,3/G,/ | 
[V:2] z8 | 
[V:1] F,4D,2 z G, | 
[V:2] z8 | 
[V:1] F,G,F,2 F, z G,3/G,/ | 
[V:2] z8 | 
[V:1] F,4D,2 z G, | 
[V:2] z8 | 
[V:1] F,2F,G, F,D,F,3/F,/ | 
[V:2] z8 | 
[V:1] F,2G,F, D,2 z G, | 
[V:2] z8 | 
[V:1] F,2F,2 F,2G,3/G,/ | 
[V:2] z8 | 
[V:1] D,2F,2 D,2 z G, | 
[V:2] z8 | 
[V:1] F,3G, F,D,F,3/F,/ | 
[V:2] z8 | 
[V:1] D,2F,2 D,2 z G, | 
[V:2] z8 | 
[V:1] F,G,F,2 F, z G,3/F,/ | 
[V:2] z8 | 
[V:1] D,2F,2 D,2 z A, | 
[V:2] z8 | 
[V:1] G,3A, B,2G,3/G,/ | 
[V:2] z8 | 
[V:1] F,4D,2 z2 ||  
[V:2] z8 ||  
[V:1] [M:3/8]G,F,F,D,B,,D, ||  
[V:2] [M:3/8]z6 ||  
[V:1] [M:2/4]D,4B,,2 z2 |]  
[V:2] [M:2/4]z8 |]  



